icons/knowledge-layer-16.svg

<?xml version="1.0" encoding="UTF-8"?><svg id="icons" xmlns="http://www.w3.org/2000/svg" viewBox="0 0 16 16"><path d="M8.32208,13.89233c-1.30005,.4325-2.53143,.90765-4.52942,.90765-2.37036,0-3.79266-.71094-3.79266-.71094L2.13281,1.48828s1.42273,.51172,3.16119,.51172c2.6875,0,2.72125-.98572,5.41199-.98572,1.73846,0,3.16119,.67395,3.16119,.67395l2.13281,12.60083s-1.11047-.84576-3-1.04504v-.74402c0-.09381-.03101-.17749-.0481-.26611,.66132,.05804,1.24725,.18652,1.7439,.34198l-.77875-4.60089c.05072-.1499,.08295-.30798,.08295-.47498v-1c0-.45264-.20581-.85425-.5238-1.12946l-.50061-2.95776c-.49542-.16968-1.33661-.3985-2.26959-.3985-1.17035,0-1.7251,.20087-2.36743,.43335-.71521,.25891-1.52576,.55237-3.04456,.55237-.90814,0-1.73621-.12628-2.35883-.26007L1.12457,13.43732c.57385,.1684,1.49091,.36267,2.66809,.36267,.32062,0,.60291-.02386,.88452-.04822,.23657,.15601,.51886,.24823,.82281,.24823h1c.33197,0,.63611-.11188,.88483-.2951l.93726,.18744Zm3.67792-.39233c0,.27612-.22388,.5-.5,.5h-1c-.27612,0-.5-.22388-.5-.5v-.29175l-3.021-.60431c-.04919,.22449-.23975,.39606-.479,.39606h-1c-.27612,0-.5-.22388-.5-.5v-1c0-.22137,.14624-.40302,.34552-.46881l-.50769-2.03119h-.33783c-.27612,0-.5-.22388-.5-.5v-1c0-.27618,.22388-.5,.5-.5h.9342l1.5658-1.56555v-.93445c0-.27618,.22388-.5,.5-.5h1c.27612,0,.5,.22382,.5,.5v.5531l2.16376,1.08167c.08905-.08191,.20569-.13477,.33624-.13477h1c.27612,0,.5,.22382,.5,.5v1c0,.27612-.22388,.5-.5,.5h-.26093l-.66913,4.0141c.24152,.03528,.43005,.23456,.43005,.4859v1Zm-5.56592-2.5l1.56592-1.56592v-.27155l-2.03119-.50818c-.04956,.15002-.16443,.26489-.31445,.31445l.50793,2.03119h.27179Zm-.43408-3.4342v.27209l2.03125,.50751c.0495-.14984,.16425-.26471,.31415-.31421l-.50775-2.03119h-.27209l-1.56555,1.5658Zm2.65454-1.59698l.50781,2.03119h.33765c.07648,0,.14691,.02014,.21173,.05084l1.28827-.86267v-.24097l-2.16357-1.08209c-.0517,.04755-.11365,.08118-.18188,.1037Zm2.63831,1.98346l-1.29285,.86188v.68585c0,.13049-.0528,.24713-.1347,.33612l.94232,1.88452,.62231-3.7348c-.04767-.00702-.09473-.01416-.13708-.03357Zm-4.29285,3.8396l3.021,.60406c.01929-.08777,.05499-.16821,.11371-.23199l-1.08197-2.16394h-.49548l-1.55725,1.56317v.2287Z"/><path fill="none" d="M0 0h16v16H0z"/></svg>

<svg xmlns="http://www.w3.org/2000/svg" viewBox="0 0 16 16"><path d="M8.322 13.892c-1.3.433-2.531.908-4.53.908-2.37 0-3.792-.711-3.792-.711l2.133-12.6S3.556 2 5.294 2c2.688 0 2.721-.986 5.412-.986 1.738 0 3.161.674 3.161.674L16 14.29s-1.11-.846-3-1.045V12.5c0-.094-.031-.177-.048-.266a8.264 8.264 0 0 1 1.744.342l-.779-4.601c.05-.15.083-.308.083-.475v-1a1.49 1.49 0 0 0-.524-1.13l-.5-2.957c-.496-.17-1.337-.399-2.27-.399-1.17 0-1.725.201-2.367.434C7.623 2.707 6.813 3 5.294 3c-.908 0-1.736-.126-2.359-.26l-1.81 10.697a9.539 9.539 0 0 0 3.552.315c.237.156.519.248.823.248h1c.332 0 .636-.112.885-.295l.937.187zM12 13.5a.5.5 0 0 1-.5.5h-1a.5.5 0 0 1-.5-.5v-.292l-3.021-.604A.493.493 0 0 1 6.5 13h-1a.5.5 0 0 1-.5-.5v-1c0-.221.146-.403.346-.469L4.838 9H4.5a.5.5 0 0 1-.5-.5v-1a.5.5 0 0 1 .5-.5h.934L7 5.434V4.5a.5.5 0 0 1 .5-.5h1a.5.5 0 0 1 .5.5v.553l2.164 1.082A.495.495 0 0 1 11.5 6h1a.5.5 0 0 1 .5.5v1a.5.5 0 0 1-.5.5h-.26l-.67 4.014c.241.035.43.235.43.486v1zM6.434 11L8 9.434v-.271l-2.031-.509a.49.49 0 0 1-.315.315L6.162 11h.272zM6 7.566v.272l2.031.507a.49.49 0 0 1 .314-.314L7.838 6h-.272L6 7.566zm2.655-1.597L9.162 8H9.5c.076 0 .147.02.212.05L11 7.189v-.24L8.836 5.864a.494.494 0 0 1-.181.104zm2.638 1.983L10 8.814V9.5c0 .13-.053.247-.135.336l.943 1.885.622-3.735a.502.502 0 0 1-.137-.034zM7 11.792l3.021.604a.493.493 0 0 1 .114-.232L9.053 10h-.496L7 11.563v.229z"/><path fill="none" d="M0 0h16v16H0z"/></svg>
